X:5874
T:Scottish de Roquefort (Landes)
O:england
M:2/4
L:1/16
K:C
d2d2 e2d2|c2d2B2G2|ABcA B2G2|\
ABcA B2G2|d2d2 e2d2|cBcd B2G2|
ABcA BGFG|ABAF G4:|\
|:G2FE D2D2|GFGA BDGB|cdcA BcBG|
AGAd B2G2|G2FE D2D2|\
GFGA BDGB|cdcA BcBG|AGAF G4:|


